svgs/materials/action/arrow_circle_up.svg

<svg xmlns="http://www.w3.org/2000/svg" enable-background="new 0 0 24 24" height="24" viewBox="0 0 24 24" width="24"><g><rect fill="none" height="24" width="24"/><path d="M12,20c-4.41,0-8-3.59-8-8s3.59-8,8-8s8,3.59,8,8S16.41,20,12,20 M12,22c5.52,0,10-4.48,10-10c0-5.52-4.48-10-10-10 C6.48,2,2,6.48,2,12C2,17.52,6.48,22,12,22L12,22z M11,12l0,4h2l0-4h3l-4-4l-4,4H11z"/></g></svg>

<?xml version="1.0" encoding="UTF-8" standalone="no"?>
<svg
   enable-background="new 0 0 24 24"
   height="24"
   viewBox="0 0 24 24"
   width="24"
   version="1.1"
   id="svg228"
   sodipodi:docname="arrow_circle_up.svg"
   inkscape:version="1.2 (dc2aeda, 2022-05-15)"
   xmlns:inkscape="http://www.inkscape.org/namespaces/inkscape"
   xmlns:sodipodi="http://sodipodi.sourceforge.net/DTD/sodipodi-0.dtd"
   xmlns="http://www.w3.org/2000/svg"
   xmlns:svg="http://www.w3.org/2000/svg">
  <defs
     id="defs232" />
  <sodipodi:namedview
     id="namedview230"
     pagecolor="#ffffff"
     bordercolor="#000000"
     borderopacity="0.25"
     inkscape:showpageshadow="2"
     inkscape:pageopacity="0.0"
     inkscape:pagecheckerboard="0"
     inkscape:deskcolor="#d1d1d1"
     showgrid="false"
     inkscape:zoom="9.8333333"
     inkscape:cx="12.050847"
     inkscape:cy="12"
     inkscape:window-width="1309"
     inkscape:window-height="456"
     inkscape:window-x="0"
     inkscape:window-y="25"
     inkscape:window-maximized="0"
     inkscape:current-layer="svg228" />
  <path
     d="M 12,20 C 7.59,20 4,16.41 4,12 4,7.59 7.59,4 12,4 c 4.41,0 8,3.59 8,8 0,4.41 -3.59,8 -8,8 m 0,2 C 17.52,22 22,17.52 22,12 22,6.48 17.52,2 12,2 6.48,2 2,6.48 2,12 2,17.52 6.48,22 12,22 Z M 11,12 v 4 h 2 v -4 h 3 L 12,8 8,12 Z"
     id="path224" />
</svg>
